resources/svg/folder-no-access.svg

<svg xmlns="http://www.w3.org/2000/svg" viewBox="0 0 15 15" fill="currentColor"><path d="M7.5 6C6.11929 6 5 7.11929 5 8.5C5 9.00956 5.15245 9.48351 5.41423 9.87874L8.87874 6.41423C8.48351 6.15245 8.00956 6 7.5 6Z" fill="black"/><path d="M7.5 11C6.99048 11 6.51656 10.8476 6.12135 10.5858L9.58583 7.12135C9.84757 7.51656 10 7.99048 10 8.5C10 9.88071 8.88071 11 7.5 11Z" fill="black"/><path fill-rule="evenodd" clip-rule="evenodd" d="M0 2.5C0 1.67157 0.671573 1 1.5 1H5.70711L7.70711 3H13.5C14.3284 3 15 3.67157 15 4.5V12.5C15 13.3284 14.3284 14 13.5 14H1.5C0.671573 14 0 13.3284 0 12.5V2.5ZM4 8.5C4 6.567 5.567 5 7.5 5C9.433 5 11 6.567 11 8.5C11 10.433 9.433 12 7.5 12C5.567 12 4 10.433 4 8.5Z" fill="black"/></svg>

<svg xmlns="http://www.w3.org/2000/svg" viewBox="0 0 15 15" fill="currentColor"><path d="M7.5 6a2.5 2.5 0 00-2.086 3.879L8.88 6.414A2.488 2.488 0 007.5 6zm0 5c-.51 0-.983-.152-1.379-.414L9.586 7.12A2.5 2.5 0 017.5 11z" fill="currentColor"/><path fill-rule="evenodd" clip-rule="evenodd" d="M0 2.5A1.5 1.5 0 011.5 1h4.207l2 2H13.5A1.5 1.5 0 0115 4.5v8a1.5 1.5 0 01-1.5 1.5h-12A1.5 1.5 0 010 12.5v-10zm4 6a3.5 3.5 0 117 0 3.5 3.5 0 01-7 0z" fill="currentColor"/></svg>
